!!!OTL: Shigezi
!!!ARE: Asia, China,ÿHebei, Nanpi
!! IV, 84
!!!SCT: C1644
!!!YEM: Copyright 1995, estate of Helmut Schaffrath.
**kern
*ICvox
*Ivox
*M2/4
*k[b-e-]
*B-:
{16ddd
16ddd
16ddd
16ccc
8ddd
16ddd
16ccc
=1
8bb-
8gg
8ff
16ff
16dd}
=2
{16ddd
16ddd
16ddd
16ccc
8ddd
16ddd
16ccc
=3
16bb-
16ccc
16ddd
16gg
8ff
16ff
16dd}
=4
{8ddd
16ddd
16ccc
8ddd
16ddd
16ccc
=5
8bb-
8gg
8ff
16ff
16dd}
=6
{8.gg
16ff
8gg
8gg
=7
16ff
16gg
8bb-
8bb-
8dd
=8
8.cc
16dd
8.ff
16bb-
=9
16gg
16ff
8een
4ff}
=10
{8.gg
16bb-
8.ccc
16bb-
=11
2ccc
=12
8.ddd
16ccc
4bb-}
=13
{8ddd
8ddd
8.ff
16gg
=14
8.bb-
16ddd
16ccc
16bb-
8gg
=15
4bb-
4r}
=16
{16ddd
16ddd
16ddd
16ccc
8ddd
16ddd
16ccc
=17
8bb-
8gg
8ff
16ff
16dd}
=18
{16ddd
16ddd
16ddd
16ccc
8ddd
16ddd
16ccc
=19
16bb-
16bb-
8gg
8ff
16ff
16dd}
=20
{16ddd
16ddd
16ddd
16ccc
8ddd
16ddd
16ccc
=21
8bb-
8gg
8ff
16ff
16dd}
=22
{8.gg
16ff
8gg
8gg
=23
16ff
16gg
8bb-
8bb-
8dd}
=24
{16.dd
32ff
16gg
16dd
8ff
8ff}
=25
{16.dd
32ff
16bb-
16dd
8ff
8ff}
=26
{16.bb-
32gg
16bb-
16dd
8ff
8ff}
=27
{16.bb-
32gg
16bb-
16dd
4ff}
=28
{8ff
4ff
16ff
16gg
=29
2bb-}
=30
{16ddd
16ccc
16ccc
16ddd
8fff
8fff
=31
16ccc
16fff
16ddd
16ccc
4bb-}
==
!!!AGN: Wuge, Hualihu
!!!AMT: simple duple
!!!AIN: vox
!!!EED: Helmut Schaffrath
!!!EEV: 1.0
*-
